elementary-xfce/mimes/24/application-vnd.openxmlformats-officedocument.wordprocessingml.template.svg

<?xml version="1.0" encoding="UTF-8" standalone="no"?>
<svg
   version="1.1"
   width="24"
   height="24"
   id="svg3828"
   sodipodi:docname="application-vnd.openxmlformats-officedocument.wordprocessingml.template.svg"
   inkscape:version="1.2.2 (b0a8486541, 2022-12-01)"
   xmlns:inkscape="http://www.inkscape.org/namespaces/inkscape"
   xmlns:sodipodi="http://sodipodi.sourceforge.net/DTD/sodipodi-0.dtd"
   xmlns:xlink="http://www.w3.org/1999/xlink"
   xmlns="http://www.w3.org/2000/svg"
   xmlns:svg="http://www.w3.org/2000/svg"
   xmlns:rdf="http://www.w3.org/1999/02/22-rdf-syntax-ns#"
   xmlns:cc="http://creativecommons.org/ns#"
   xmlns:dc="http://purl.org/dc/elements/1.1/">
  <sodipodi:namedview
     pagecolor="#ffffff"
     bordercolor="#666666"
     borderopacity="1"
     objecttolerance="10"
     gridtolerance="10"
     guidetolerance="10"
     inkscape:pageopacity="0"
     inkscape:pageshadow="2"
     inkscape:window-width="894"
     inkscape:window-height="1028"
     id="namedview38"
     showgrid="false"
     inkscape:zoom="5.8409969"
     inkscape:cx="15.836338"
     inkscape:cy="13.439487"
     inkscape:window-x="816"
     inkscape:window-y="115"
     inkscape:window-maximized="0"
     inkscape:current-layer="svg3828"
     inkscape:pagecheckerboard="0"
     inkscape:showpageshadow="2"
     inkscape:deskcolor="#d1d1d1" />
  <defs
     id="defs3830">
    <linearGradient
       id="linearGradient3977">
      <stop
         id="stop3979"
         style="stop-color:#ffffff;stop-opacity:1"
         offset="0" />
      <stop
         id="stop3981"
         style="stop-color:#ffffff;stop-opacity:0.23529412"
         offset="0" />
      <stop
         id="stop3983"
         style="stop-color:#ffffff;stop-opacity:0.15686275"
         offset="1" />
      <stop
         id="stop3985"
         style="stop-color:#ffffff;stop-opacity:0.39215687"
         offset="1" />
    </linearGradient>
    <linearGradient
       id="linearGradient3600-4">
      <stop
         id="stop3602-7"
         style="stop-color:#f4f4f4;stop-opacity:1"
         offset="0" />
      <stop
         id="stop3604-6"
         style="stop-color:#dbdbdb;stop-opacity:1"
         offset="1" />
    </linearGradient>
    <linearGradient
       id="linearGradient5060">
      <stop
         id="stop5062"
         style="stop-color:#000000;stop-opacity:1"
         offset="0" />
      <stop
         id="stop5064"
         style="stop-color:#000000;stop-opacity:0"
         offset="1" />
    </linearGradient>
    <linearGradient
       id="linearGradient5048">
      <stop
         id="stop5050"
         style="stop-color:#000000;stop-opacity:0"
         offset="0" />
      <stop
         id="stop5056"
         style="stop-color:#000000;stop-opacity:1"
         offset="0.5" />
      <stop
         id="stop5052"
         style="stop-color:#000000;stop-opacity:0"
         offset="1" />
    </linearGradient>
    <linearGradient
       x1="23.99999"
       y1="6.4736748"
       x2="23.99999"
       y2="41.526306"
       id="linearGradient3013"
       xlink:href="#linearGradient3977"
       gradientUnits="userSpaceOnUse"
       gradientTransform="matrix(0.40540511,0,0,0.51351351,2.2696871,-0.3243195)" />
    <linearGradient
       x1="25.132275"
       y1="0.98520643"
       x2="25.132275"
       y2="47.013336"
       id="linearGradient3016"
       xlink:href="#linearGradient3600-4"
       gradientUnits="userSpaceOnUse"
       gradientTransform="matrix(0.45714178,0,0,0.43456667,1.0285964,0.90372283)" />
    <radialGradient
       cx="605.71429"
       cy="486.64789"
       r="117.14286"
       fx="605.71429"
       fy="486.64789"
       id="radialGradient3021"
       xlink:href="#linearGradient5060"
       gradientUnits="userSpaceOnUse"
       gradientTransform="matrix(0.01204859,0,0,0.0082353,13.238793,18.980564)" />
    <radialGradient
       cx="605.71429"
       cy="486.64789"
       r="117.14286"
       fx="605.71429"
       fy="486.64789"
       id="radialGradient3024"
       xlink:href="#linearGradient5060"
       gradientUnits="userSpaceOnUse"
       gradientTransform="matrix(-0.01204859,0,0,0.0082353,10.761206,18.980564)" />
    <linearGradient
       x1="302.85715"
       y1="366.64789"
       x2="302.85715"
       y2="609.50507"
       id="linearGradient3027"
       xlink:href="#linearGradient5048"
       gradientUnits="userSpaceOnUse"
       gradientTransform="matrix(0.0352071,0,0,0.0082353,-0.724852,18.980547)" />
    <linearGradient
       id="linearGradient2867-449-88-871-390-598-476-591-434-148-57-177-8-3">
      <stop
         offset="0"
         style="stop-color:#90dbec;stop-opacity:1"
         id="stop3750-1-0" />
      <stop
         offset="0.26238"
         style="stop-color:#55c1ec;stop-opacity:1"
         id="stop3752-3-7" />
      <stop
         offset="0.704952"
         style="stop-color:#3689e6;stop-opacity:1"
         id="stop3754-1-8" />
      <stop
         offset="1"
         style="stop-color:#2b63a0;stop-opacity:1"
         id="stop3756-1-6" />
    </linearGradient>
    <linearGradient
       id="linearGradient3412">
      <stop
         id="stop3414"
         style="stop-color:#fcfcfc;stop-opacity:1"
         offset="0" />
      <stop
         id="stop3416"
         style="stop-color:#cbcdd9;stop-opacity:1"
         offset="1" />
    </linearGradient>
    <linearGradient
       x1="35.06815"
       y1="20.622553"
       x2="43.550648"
       y2="29.10021"
       id="linearGradient3081"
       xlink:href="#linearGradient3412"
       gradientUnits="userSpaceOnUse"
       gradientTransform="matrix(0,0.61752191,-0.65185192,0,33.55926,-4.7555097)" />
    <radialGradient
       xlink:href="#linearGradient2867-449-88-871-390-598-476-591-434-148-57-177-8-3"
       id="radialGradient3441-3"
       gradientUnits="userSpaceOnUse"
       gradientTransform="matrix(-7.6630149e-8,3.5405486,-3.8355631,-1.0627773e-7,49.480521,-32.283476)"
       cx="5.6491151"
       cy="9.9571075"
       fx="5.118885"
       fy="9.9571075"
       r="12.671875" />
  </defs>
  <metadata
     id="metadata3833">
    <rdf:RDF>
      <cc:Work
         rdf:about="">
        <dc:format>image/svg+xml</dc:format>
        <dc:type
           rdf:resource="http://purl.org/dc/dcmitype/StillImage" />
      </cc:Work>
    </rdf:RDF>
  </metadata>
  <rect
     width="16.999998"
     height="2"
     x="3.5000007"
     y="22"
     id="rect2879"
     style="opacity:0.15;fill:url(#linearGradient3027);fill-opacity:1;fill-rule:nonzero;stroke:none;stroke-width:1;marker:none;visibility:visible;display:inline;overflow:visible" />
  <path
     d="m 3.4999999,22.000085 c 0,0 0,1.999891 0,1.999891 C 2.8795275,24.003776 2,23.551901 2,22.999901 2,22.447902 2.6924,22.000085 3.4999999,22.000085 z"
     id="path2881"
     style="opacity:0.15;fill:url(#radialGradient3024);fill-opacity:1;fill-rule:nonzero;stroke:none;stroke-width:1;marker:none;visibility:visible;display:inline;overflow:visible" />
  <path
     d="m 20.5,22.000085 c 0,0 0,1.999891 0,1.999891 0.620472,0.0038 1.5,-0.448075 1.5,-1.000075 0,-0.551999 -0.692402,-0.999816 -1.5,-0.999816 z"
     id="path2883"
     style="opacity:0.15;fill:url(#radialGradient3021);fill-opacity:1;fill-rule:nonzero;stroke:none;stroke-width:1;marker:none;visibility:visible;display:inline;overflow:visible" />
  <path
     d="m 4,2 c 3.6664118,0 15.99998,0.0013 15.99998,0.0013 L 20,22 C 20,22 9.3333337,22 4,22 4,15.33334 4,8.6666817 4,2.0000212 Z"
     id="path4160-3"
     style="display:inline;fill:url(#linearGradient3016);fill-opacity:1;stroke:none" />
  <path
     style="color:#000000;clip-rule:nonzero;display:inline;overflow:visible;visibility:visible;isolation:auto;mix-blend-mode:normal;color-interpolation:sRGB;color-interpolation-filters:linearRGB;solid-color:#000000;solid-opacity:1;fill:url(#radialGradient3441-3);fill-opacity:1;fill-rule:nonzero;stroke:none;stroke-width:1;stroke-linecap:butt;stroke-linejoin:miter;stroke-miterlimit:4;stroke-dasharray:none;stroke-dashoffset:0;stroke-opacity:1;marker:none;color-rendering:auto;image-rendering:auto;shape-rendering:auto;text-rendering:auto;enable-background:accumulate"
     d="M 12,7 6,8 v 9 l 6,1 z m 1,1 v 2 h 3 v 1 h -3 v 1 h 3 v 1 h -3 v 1 h 3 v 1 h -3 v 2 h 5 V 8 Z m -2.71875,2.363281 h 0.339844 c 0.313618,0 0.332531,0.02299 0.296875,0.199219 -0.02123,0.10492 -0.198282,1.036636 -0.394531,2.074219 l -0.353516,1.888672 H 9.8046875 c -0.1984803,0 -0.3594776,-0.01373 -0.3632813,-0.02539 C 9.437556,14.48834 9.323383,13.871126 9.1875,13.125 9.0516187,12.37887 8.9224145,11.81677 8.9003906,11.886719 8.8783632,11.956669 8.7642307,12.571672 8.6484375,13.238281 L 8.4375,14.451172 8.1074219,14.423828 7.765625,14.400391 7.4902344,12.736328 c -0.153855,-0.909341 -0.2995167,-1.751611 -0.3203125,-1.875 -0.034406,-0.204143 -0.011994,-0.22964 0.2304687,-0.261719 0.3378322,-0.04469 0.3515676,-0.0047 0.5507813,1.462891 0.085102,0.627004 0.1564237,1.149027 0.1679687,1.162109 0.01154,0.01309 0.1298339,-0.581482 0.2617188,-1.3125 0.1318862,-0.731018 0.2811896,-1.350122 0.3320312,-1.386718 0.1463245,-0.105326 0.5574291,-0.07959 0.5957032,0.03711 0.019114,0.05829 0.1379493,0.689239 0.2539062,1.400391 0.1940028,1.189803 0.3314436,1.621978 0.3320312,1.048828 2.266e-4,-0.22891 0.1548918,-1.321107 0.3085938,-2.199219 z"
     id="path3439"
     sodipodi:nodetypes="cccccccccccccccccccccccssccscsccccccscccsscsccc" />
  <path
     d="m 19.5,21.5 -15.0000004,0 0,-19 L 19.5,2.5 z"
     id="rect6741-1"
     style="fill:none;stroke:url(#linearGradient3013);stroke-width:1;stroke-linecap:round;stroke-linejoin:miter;stroke-miterlimit:4;stroke-opacity:1;stroke-dasharray:none;stroke-dashoffset:0" />
  <path
     d="m 3.4999601,1.4999569 c 3.8955809,0 17.0000589,0.00136 17.0000589,0.00136 l 2.1e-5,20.9987161 c 0,0 -11.3333862,0 -17.0000799,0 0,-7.000018 0,-14.000035 0,-21.0000538 z"
     id="path4160-3-1"
     style="opacity:0.3;fill:none;stroke:#000000;stroke-width:0.99992186;stroke-linecap:butt;stroke-linejoin:round;stroke-miterlimit:4;stroke-opacity:1;stroke-dasharray:none;stroke-dashoffset:0;display:inline" />
  <g
     id="g4198"
     transform="matrix(1.2992953,0,0,1.3610939,-5.4236416,-8.4980338)"
     style="stroke-width:0.751974">
    <path
       d="M 21.491162,13.028313 10.854674,23.509221 h 10.636488 z m -2.308944,5.337795 v 2.938708 h -3.078592 z"
       id="path3410"
       style="opacity:0.8;fill:url(#linearGradient3081);fill-opacity:1;fill-rule:evenodd;stroke:#83899a;stroke-width:0.751974px;stroke-linecap:butt;stroke-linejoin:miter;stroke-opacity:1"
       sodipodi:nodetypes="cccccccc" />
  </g>
</svg>

<?xml version="1.0" encoding="UTF-8" standalone="no"?>
<svg
   version="1.1"
   width="24"
   height="24"
   id="svg3828"
   sodipodi:docname="application-vnd.openxmlformats-officedocument.wordprocessingml.template.svg"
   inkscape:version="1.1.1 (3bf5ae0d25, 2021-09-20)"
   xmlns:inkscape="http://www.inkscape.org/namespaces/inkscape"
   xmlns:sodipodi="http://sodipodi.sourceforge.net/DTD/sodipodi-0.dtd"
   xmlns:xlink="http://www.w3.org/1999/xlink"
   xmlns="http://www.w3.org/2000/svg"
   xmlns:svg="http://www.w3.org/2000/svg"
   xmlns:rdf="http://www.w3.org/1999/02/22-rdf-syntax-ns#"
   xmlns:cc="http://creativecommons.org/ns#"
   xmlns:dc="http://purl.org/dc/elements/1.1/">
  <sodipodi:namedview
     pagecolor="#ffffff"
     bordercolor="#666666"
     borderopacity="1"
     objecttolerance="10"
     gridtolerance="10"
     guidetolerance="10"
     inkscape:pageopacity="0"
     inkscape:pageshadow="2"
     inkscape:window-width="894"
     inkscape:window-height="1028"
     id="namedview38"
     showgrid="false"
     inkscape:zoom="16.520834"
     inkscape:cx="11.742749"
     inkscape:cy="1.1803279"
     inkscape:window-x="0"
     inkscape:window-y="0"
     inkscape:window-maximized="0"
     inkscape:current-layer="svg3828"
     inkscape:pagecheckerboard="0" />
  <defs
     id="defs3830">
    <linearGradient
       id="linearGradient3977">
      <stop
         id="stop3979"
         style="stop-color:#ffffff;stop-opacity:1"
         offset="0" />
      <stop
         id="stop3981"
         style="stop-color:#ffffff;stop-opacity:0.23529412"
         offset="0" />
      <stop
         id="stop3983"
         style="stop-color:#ffffff;stop-opacity:0.15686275"
         offset="1" />
      <stop
         id="stop3985"
         style="stop-color:#ffffff;stop-opacity:0.39215687"
         offset="1" />
    </linearGradient>
    <linearGradient
       id="linearGradient3600-4">
      <stop
         id="stop3602-7"
         style="stop-color:#f4f4f4;stop-opacity:1"
         offset="0" />
      <stop
         id="stop3604-6"
         style="stop-color:#dbdbdb;stop-opacity:1"
         offset="1" />
    </linearGradient>
    <linearGradient
       id="linearGradient5060">
      <stop
         id="stop5062"
         style="stop-color:#000000;stop-opacity:1"
         offset="0" />
      <stop
         id="stop5064"
         style="stop-color:#000000;stop-opacity:0"
         offset="1" />
    </linearGradient>
    <linearGradient
       id="linearGradient5048">
      <stop
         id="stop5050"
         style="stop-color:#000000;stop-opacity:0"
         offset="0" />
      <stop
         id="stop5056"
         style="stop-color:#000000;stop-opacity:1"
         offset="0.5" />
      <stop
         id="stop5052"
         style="stop-color:#000000;stop-opacity:0"
         offset="1" />
    </linearGradient>
    <linearGradient
       x1="23.99999"
       y1="6.4736748"
       x2="23.99999"
       y2="41.526306"
       id="linearGradient3013"
       xlink:href="#linearGradient3977"
       gradientUnits="userSpaceOnUse"
       gradientTransform="matrix(0.40540511,0,0,0.51351351,2.2696871,-0.3243195)" />
    <linearGradient
       x1="25.132275"
       y1="0.98520643"
       x2="25.132275"
       y2="47.013336"
       id="linearGradient3016"
       xlink:href="#linearGradient3600-4"
       gradientUnits="userSpaceOnUse"
       gradientTransform="matrix(0.45714178,0,0,0.43456667,1.0285964,0.90372283)" />
    <radialGradient
       cx="605.71429"
       cy="486.64789"
       r="117.14286"
       fx="605.71429"
       fy="486.64789"
       id="radialGradient3021"
       xlink:href="#linearGradient5060"
       gradientUnits="userSpaceOnUse"
       gradientTransform="matrix(0.01204859,0,0,0.0082353,13.238793,18.980564)" />
    <radialGradient
       cx="605.71429"
       cy="486.64789"
       r="117.14286"
       fx="605.71429"
       fy="486.64789"
       id="radialGradient3024"
       xlink:href="#linearGradient5060"
       gradientUnits="userSpaceOnUse"
       gradientTransform="matrix(-0.01204859,0,0,0.0082353,10.761206,18.980564)" />
    <linearGradient
       x1="302.85715"
       y1="366.64789"
       x2="302.85715"
       y2="609.50507"
       id="linearGradient3027"
       xlink:href="#linearGradient5048"
       gradientUnits="userSpaceOnUse"
       gradientTransform="matrix(0.0352071,0,0,0.0082353,-0.724852,18.980547)" />
    <linearGradient
       id="linearGradient2867-449-88-871-390-598-476-591-434-148-57-177-8-3">
      <stop
         offset="0"
         style="stop-color:#90dbec;stop-opacity:1"
         id="stop3750-1-0" />
      <stop
         offset="0.26238"
         style="stop-color:#55c1ec;stop-opacity:1"
         id="stop3752-3-7" />
      <stop
         offset="0.704952"
         style="stop-color:#3689e6;stop-opacity:1"
         id="stop3754-1-8" />
      <stop
         offset="1"
         style="stop-color:#2b63a0;stop-opacity:1"
         id="stop3756-1-6" />
    </linearGradient>
    <radialGradient
       r="12.671875"
       fy="9.9571075"
       fx="5.118885"
       cy="9.9571075"
       cx="5.6491151"
       gradientTransform="matrix(-7.6630149e-8,3.5405486,-3.8355631,-1.0627773e-7,49.480521,-32.283476)"
       gradientUnits="userSpaceOnUse"
       id="radialGradient3441"
       xlink:href="#linearGradient2867-449-88-871-390-598-476-591-434-148-57-177-8-3" />
    <radialGradient
       cx="605.71429"
       cy="486.64789"
       r="117.14286"
       fx="605.71429"
       fy="486.64789"
       id="radialGradient3044"
       xlink:href="#linearGradient5060"
       gradientUnits="userSpaceOnUse"
       gradientTransform="matrix(-0.01472605,0,0,0.0095356,21.208141,18.688026)" />
    <linearGradient
       x1="33.876614"
       y1="19.948324"
       x2="44.118835"
       y2="30.190546"
       id="linearGradient3391"
       xlink:href="#linearGradient3412"
       gradientUnits="userSpaceOnUse"
       gradientTransform="matrix(0,0.61754391,-0.65185192,0,33.55926,-4.7561431)" />
    <linearGradient
       id="linearGradient3412">
      <stop
         id="stop3414"
         style="stop-color:#fcfcfc;stop-opacity:1"
         offset="0" />
      <stop
         id="stop3416"
         style="stop-color:#cbcdd9;stop-opacity:1"
         offset="1" />
    </linearGradient>
    <linearGradient
       x1="35.06815"
       y1="20.622553"
       x2="43.550648"
       y2="29.10021"
       id="linearGradient3081"
       xlink:href="#linearGradient3412"
       gradientUnits="userSpaceOnUse"
       gradientTransform="matrix(0,0.61752191,-0.65185192,0,33.55926,-4.7555097)" />
  </defs>
  <metadata
     id="metadata3833">
    <rdf:RDF>
      <cc:Work
         rdf:about="">
        <dc:format>image/svg+xml</dc:format>
        <dc:type
           rdf:resource="http://purl.org/dc/dcmitype/StillImage" />
        <dc:title />
      </cc:Work>
    </rdf:RDF>
  </metadata>
  <rect
     width="16.999998"
     height="2"
     x="3.5000007"
     y="22"
     id="rect2879"
     style="opacity:0.15;fill:url(#linearGradient3027);fill-opacity:1;fill-rule:nonzero;stroke:none;stroke-width:1;marker:none;visibility:visible;display:inline;overflow:visible" />
  <path
     d="m 3.4999999,22.000085 c 0,0 0,1.999891 0,1.999891 C 2.8795275,24.003776 2,23.551901 2,22.999901 2,22.447902 2.6924,22.000085 3.4999999,22.000085 z"
     id="path2881"
     style="opacity:0.15;fill:url(#radialGradient3024);fill-opacity:1;fill-rule:nonzero;stroke:none;stroke-width:1;marker:none;visibility:visible;display:inline;overflow:visible" />
  <path
     d="m 20.5,22.000085 c 0,0 0,1.999891 0,1.999891 0.620472,0.0038 1.5,-0.448075 1.5,-1.000075 0,-0.551999 -0.692402,-0.999816 -1.5,-0.999816 z"
     id="path2883"
     style="opacity:0.15;fill:url(#radialGradient3021);fill-opacity:1;fill-rule:nonzero;stroke:none;stroke-width:1;marker:none;visibility:visible;display:inline;overflow:visible" />
  <path
     d="m 4,2 c 3.6664118,0 15.99998,0.0013 15.99998,0.0013 L 20,22 C 20,22 9.3333337,22 4,22 4,15.33334 4,8.6666817 4,2.0000212 Z"
     id="path4160-3"
     style="display:inline;fill:url(#linearGradient3016);fill-opacity:1;stroke:none" />
  <path
     d="m 19.5,21.5 -15.0000004,0 0,-19 L 19.5,2.5 z"
     id="rect6741-1"
     style="fill:none;stroke:url(#linearGradient3013);stroke-width:1;stroke-linecap:round;stroke-linejoin:miter;stroke-miterlimit:4;stroke-opacity:1;stroke-dasharray:none;stroke-dashoffset:0" />
  <path
     d="m 3.4999601,1.4999569 c 3.8955809,0 17.0000589,0.00136 17.0000589,0.00136 l 2.1e-5,20.9987161 c 0,0 -11.3333862,0 -17.0000799,0 0,-7.000018 0,-14.000035 0,-21.0000538 z"
     id="path4160-3-1"
     style="opacity:0.3;fill:none;stroke:#000000;stroke-width:0.99992186;stroke-linecap:butt;stroke-linejoin:round;stroke-miterlimit:4;stroke-opacity:1;stroke-dasharray:none;stroke-dashoffset:0;display:inline" />
  <path
     id="path3439"
     d="M 12 6.8007812 L 6 8 L 6 16.800781 L 12 18 L 12 6.8007812 z M 13 8 L 13 9.2285156 L 16.75 9.2285156 L 16.75 9.6367188 L 13 9.6367188 L 13 10.455078 L 16.75 10.455078 L 16.75 10.863281 L 13 10.863281 L 13 11.681641 L 16.75 11.681641 L 16.75 12.091797 L 13 12.091797 L 13 12.908203 L 16.75 12.908203 L 16.75 13.318359 L 13 13.318359 L 13 14.136719 L 16.75 14.136719 L 16.75 14.544922 L 13 14.544922 L 13 15.363281 L 16.75 15.363281 L 16.75 15.771484 L 13 15.771484 L 13 17 L 18 17 L 18 8 L 13 8 z M 10.28125 10.363281 L 10.621094 10.363281 C 10.934712 10.363281 10.953625 10.386271 10.917969 10.5625 C 10.896739 10.66742 10.719687 11.599136 10.523438 12.636719 L 10.169922 14.525391 L 9.8046875 14.525391 C 9.6062072 14.525391 9.4452099 14.51166 9.4414062 14.5 C 9.437556 14.48834 9.323383 13.871126 9.1875 13.125 C 9.0516187 12.37887 8.9224145 11.81677 8.9003906 11.886719 C 8.8783632 11.956669 8.7642307 12.571672 8.6484375 13.238281 L 8.4375 14.451172 L 8.1074219 14.423828 L 7.765625 14.400391 L 7.4902344 12.736328 C 7.3363794 11.826987 7.1907177 10.984717 7.1699219 10.861328 C 7.1355159 10.657185 7.1579277 10.631688 7.4003906 10.599609 C 7.7382228 10.554919 7.7519582 10.594909 7.9511719 12.0625 C 8.0362739 12.689504 8.1075956 13.211527 8.1191406 13.224609 C 8.1306806 13.237699 8.2489745 12.643127 8.3808594 11.912109 C 8.5127456 11.181091 8.662049 10.561987 8.7128906 10.525391 C 8.8592151 10.420065 9.2703197 10.4458 9.3085938 10.5625 C 9.3277078 10.62079 9.4465431 11.251739 9.5625 11.962891 C 9.7565028 13.152694 9.8939436 13.584869 9.8945312 13.011719 C 9.8947578 12.782809 10.049423 11.690612 10.203125 10.8125 L 10.28125 10.363281 z "
     style="color:#000000;clip-rule:nonzero;display:inline;overflow:visible;visibility:visible;opacity:1;isolation:auto;mix-blend-mode:normal;color-interpolation:sRGB;color-interpolation-filters:linearRGB;solid-color:#000000;solid-opacity:1;fill:url(#radialGradient3441);fill-opacity:1;fill-rule:nonzero;stroke:none;stroke-width:1;stroke-linecap:butt;stroke-linejoin:miter;stroke-miterlimit:4;stroke-dasharray:none;stroke-dashoffset:0;stroke-opacity:1;marker:none;color-rendering:auto;image-rendering:auto;shape-rendering:auto;text-rendering:auto;enable-background:accumulate" />
  <g
     id="g4198"
     transform="matrix(1.2992953,0,0,1.3610939,-5.4236416,-8.4980338)"
     style="stroke-width:0.751974">
    <path
       d="M 21.491162,13.028313 10.854674,23.509221 h 10.636488 z m -2.308944,5.337795 v 2.938708 h -3.078592 z"
       id="path3410"
       style="opacity:0.8;fill:url(#linearGradient3081);fill-opacity:1;fill-rule:evenodd;stroke:#83899a;stroke-width:0.751974px;stroke-linecap:butt;stroke-linejoin:miter;stroke-opacity:1"
       sodipodi:nodetypes="cccccccc" />
  </g>
</svg>
